Apricity Icons/16/panel/dropboxstatus-busy.svg

<svg xmlns="http://www.w3.org/2000/svg" width="16" height="16" version="1.1">
 <defs>
  <style id="current-color-scheme" type="text/css">
   .ColorScheme-Text { color:#dfdfdf; } .ColorScheme-Highlight { color:#4285f4; }
  </style>
 </defs>
 <path style="fill:currentColor" class="ColorScheme-Text" d="M 4.4472656 1 L 4.4492188 1.0039062 L 0.0078125 3.5078125 L 4 5.9863281 L 0 9.0039062 L 4.4492188 11.5 L 8 9.0097656 L 4 6 L 8 3.5078125 L 12 6.0136719 L 10.263672 7.3144531 C 10.819229 7.1075274 11.407159 7.001052 12 7 C 12.613322 7.00171 13.221095 7.1162466 13.792969 7.3378906 L 12 5.9960938 L 15.990234 3.5058594 L 11.550781 1 L 8 3.4921875 L 4.4472656 1 z M 12 8 C 9.791 8 8 9.7909999 8 12 C 8 14.209 9.791 16 12 16 C 14.209 16 16 14.209 16 12 C 16 9.7909999 14.209 8 12 8 z M 12 9 A 3 3 0 0 1 15 12 L 14 12 A 2 2 0 0 0 12 10 L 12 9 z M 7.2128906 10.5625 L 4.4492188 12.501953 L 3.5605469 12.003906 L 3.5605469 12.375 L 8 15 L 8.0058594 14.998047 C 7.3550571 14.133881 7.0021123 13.081851 7 12 C 7.0005819 11.513023 7.072303 11.028743 7.2128906 10.5625 z M 9 12 L 10 12 A 2 2 0 0 0 12 14 L 12 15 A 3 3 0 0 1 9 12 z"/>
</svg>

<svg xmlns="http://www.w3.org/2000/svg" width="16" height="16"><defs><style id="current-color-scheme" type="text/css"></style></defs><path d="M4.447 1l.002.004L.008 3.508 4 5.986 0 9.004 4.45 11.5 8 9.01 4 6l4-2.492 4 2.506-1.736 1.3A5 5 0 0 1 12 7a5 5 0 0 1 1.793.338L12 5.996l3.99-2.49L11.55 1 8 3.492 4.447 1zM12 8a4 4 0 1 0 0 8 4 4 0 0 0 0-8zm0 1a3 3 0 0 1 3 3h-1a2 2 0 0 0-2-2V9zm-4.787 1.563l-2.764 1.939-.888-.498v.371L8 15l.006-.002A5 5 0 0 1 7 12a5 5 0 0 1 .213-1.438zM9 12h1a2 2 0 0 0 2 2v1a3 3 0 0 1-3-3z" fill="currentColor" color="#dfdfdf"/></svg>
